papirus/32x32/apps/copy-com.svg

<?xml version="1.0" encoding="UTF-8" standalone="no"?>
<!-- Created with Inkscape (http://www.inkscape.org/) -->

<svg
   xmlns:dc="http://purl.org/dc/elements/1.1/"
   xmlns:cc="http://creativecommons.org/ns#"
   xmlns:rdf="http://www.w3.org/1999/02/22-rdf-syntax-ns#"
   xmlns:svg="http://www.w3.org/2000/svg"
   xmlns="http://www.w3.org/2000/svg"
   xmlns:sodipodi="http://sodipodi.sourceforge.net/DTD/sodipodi-0.dtd"
   xmlns:inkscape="http://www.inkscape.org/namespaces/inkscape"
   id="svg2"
   height="32"
   viewBox="0 0 32 32"
   width="32"
   version="1.1"
   inkscape:version="0.91 r13725"
   sodipodi:docname="copy-com.svg">
  <defs
     id="defs13" />
  <sodipodi:namedview
     pagecolor="#ffffff"
     bordercolor="#666666"
     borderopacity="1"
     objecttolerance="10"
     gridtolerance="10"
     guidetolerance="10"
     inkscape:pageopacity="0"
     inkscape:pageshadow="2"
     inkscape:window-width="1600"
     inkscape:window-height="849"
     id="namedview11"
     showgrid="false"
     inkscape:zoom="1"
     inkscape:cx="14.740835"
     inkscape:cy="16"
     inkscape:window-x="0"
     inkscape:window-y="0"
     inkscape:window-maximized="1"
     inkscape:current-layer="svg2" />
  <metadata
     id="metadata8">
    <rdf:RDF>
      <cc:Work
         rdf:about="">
        <dc:format>image/svg+xml</dc:format>
        <dc:type
           rdf:resource="http://purl.org/dc/dcmitype/StillImage" />
        <dc:title />
      </cc:Work>
    </rdf:RDF>
  </metadata>
  <g
     id="g4138"
     transform="matrix(.080057 0 0 .078628 1.6846 5.273)">
    <path
       id="path4142"
       d="m135.1 276.33-49.968-165.34-81.192 12.72 62.455-50.873 37.475 12.718 49.96 127.18l106.17-63.591 31.228 6.3591 62.455 120.82-187.37-19.077zm99.92-152.62 81.2-127.18-37.48 146.26z"
       fill="#1ba9cb" />
    <path
       id="path4140"
       d="m160.08 200.02-18.737-44.514 49.964-31.795h24.982l31.228 25.436z"
       fill="#e65902" />
  </g>
  <path
     style="opacity:0.2;fill:#ffffff"
     inkscape:connector-curvature="0"
     d="m 26.999824,4.9999249 -6.499948,9.9999091 0.507996,0.218998 5.555956,-8.5490223 0.435996,-1.6698848 z M 6.9999845,10.99987 l -4.9999599,3.999964 1.5468876,-0.237998 3.4530723,-2.761975 2.999976,0.999991 3.9999675,9.999909 8.499932,-4.999954 2.49998,0.499995 4.444965,8.444923 0.554995,0.055 -4.99996,-9.499914 -0.950992,-0.188998 -0.049,0.188998 -0.874993,-0.374996 -0.624995,-0.124999 -1.296989,0.763993 0.296997,0.235998 -6.999944,3.999963 -0.101999,-0.233998 -0.397997,0.233998 -3.9999675,-9.999909 -2.999976,-0.999991 z m 9.9999195,3.999964 -3.999968,2.499977 0.337998,0.788993 3.66197,-2.288979 1.999984,0 1.770986,1.415987 0.728994,-0.415996 -2.49998,-1.999982 -1.999984,0 z"
     id="path4143" />
  <g
     transform="matrix(.080057 0 0 .078628 1.6846 5.273)"
     id="g4143"
     style="fill:#000000;fill-opacity:1;opacity:0.3">
    <path
       style="fill:#000000;fill-opacity:1"
       d="M 27 5 L 26.564453 5.6699219 L 24 15.5 L 21.007812 14.21875 L 20.5 15 L 23.125 16.125 L 24.048828 16.310547 L 27 5 z M 8.5 13 L 3.546875 13.761719 L 2 15 L 8.5 14 L 12.5 27 L 15 25.5 L 30 27 L 29.445312 25.945312 L 15 24.5 L 12.5 26 L 8.5 13 z "
       transform="matrix(12.4911,0,0,12.718116,-21.042507,-67.062624)"
       id="path4145" />
    <path
       style="fill:#000000;fill-opacity:1"
       d="M 20.771484 16.416016 L 14.5 20 L 13.337891 17.289062 L 13 17.5 L 14.5 21 L 21.5 17 L 20.771484 16.416016 z "
       transform="matrix(12.4911,0,0,12.718116,-21.042507,-67.062624)"
       id="path4147" />
  </g>
  <g
     style="opacity:0.3;fill:#000000;fill-opacity:1"
     id="g4150"
     transform="matrix(0.080057,0,0,0.078628,1.6846,4.2727248)" />
</svg>

<?xml version="1.0" encoding="UTF-8" standalone="no"?>
<svg id="svg2" xmlns:rdf="http://www.w3.org/1999/02/22-rdf-syntax-ns#" xmlns="http://www.w3.org/2000/svg" height="32" width="32" version="1.1" xmlns:cc="http://creativecommons.org/ns#" viewBox="0 0 32 32" xmlns:dc="http://purl.org/dc/elements/1.1/">
 <metadata id="metadata8">
  <rdf:RDF>
   <cc:Work rdf:about="">
    <dc:format>image/svg+xml</dc:format>
    <dc:type rdf:resource="http://purl.org/dc/dcmitype/StillImage"/>
    <dc:title/>
   </cc:Work>
  </rdf:RDF>
 </metadata>
 <g id="g4143" opacity=".2" transform="matrix(.080057 0 0 .078628 1.6846 6.273)">
  <path id="path4145" d="m27 5-0.436 0.6699-2.564 9.8301-2.992-1.281-0.508 0.781 2.625 1.125 0.924 0.186 2.951-11.311zm-18.5 8-4.9531 0.762-1.5469 1.238 6.5-1 4 13 2.5-1.5 15 1.5-0.555-1.055-14.445-1.445-2.5 1.5-4-13z" transform="matrix(12.491 0 0 12.718 -21.043 -67.063)"/>
  <path id="path4147" d="m20.771 16.416-6.271 3.584-1.162-2.711-0.338 0.211l1.5 3.5 7-4-0.72852-0.58398z" transform="matrix(12.491 0 0 12.718 -21.043 -67.063)"/>
 </g>
 <g id="g4138" transform="matrix(.080057 0 0 .078628 1.6846 5.273)">
  <path id="path4142" d="m135.1 276.33-49.968-165.34-81.192 12.72 62.455-50.873 37.475 12.718 49.96 127.18l106.17-63.591 31.228 6.3591 62.455 120.82-187.37-19.077zm99.92-152.62 81.2-127.18-37.48 146.26z" fill="#1ba9cb"/>
  <path id="path4140" d="m160.08 200.02-18.737-44.514 49.964-31.795h24.982l31.228 25.436z" fill="#e65902"/>
 </g>
 <path id="path4143" opacity=".2" fill="#fff" d="m27 4.9999-6.4999 9.9999 0.508 0.219 5.556-8.549 0.436-1.6699zm-20 6.0001l-5 4 1.5469-0.238 3.4531-2.762 3 0.99999 4 9.9999 8.4999-5 2.5 0.5 4.445 8.4449 0.555 0.055-5-9.4999-0.95099-0.189-0.049 0.189-0.87499-0.375-0.625-0.125-1.297 0.76399 0.297 0.236-6.9999 4-0.102-0.234-0.398 0.234-4-9.9999-3-0.99999zm9.9999 4-4 2.5 0.338 0.78899 3.662-2.289h2l1.771 1.416 0.72899-0.416-2.5-2h-2z"/>
</svg>
